src/assets/filled/Harmony.svg

<svg width="24" height="24" viewBox="0 0 24 24"  xmlns="http://www.w3.org/2000/svg">
<path d="M22 5.74023V18.2602C22 20.3202 20.32 22.0002 18.26 22.0002H17.74C15.68 22.0002 14 20.3202 14 18.2602V11.8802C14.35 11.8402 14.69 11.7902 15.01 11.7202C17.05 11.3502 18.6 10.6502 19.72 9.94023C21.16 9.04023 22 7.44023 22 5.74023Z" />
<path d="M22 5.74001C22 7.44001 21.16 9.04 19.72 9.94C18.6 10.65 17.05 11.35 15.01 11.72C14.69 11.79 14.35 11.84 14 11.88V12.63C12.81 12.78 11.54 12.7 10.07 12.85L10 12.86V18.26C10 20.32 8.32001 22 6.26001 22H5.73999C3.67999 22 2 20.32 2 18.26C2 18.17 2.00002 18.07 2.02002 17.98C2.10002 16.38 2.92003 14.91 4.28003 14.06C5.40003 13.35 6.94998 12.65 8.97998 12.28C9.29998 12.21 9.65 12.16 10 12.12V11.35C11.56 11.21 12.75 11.29 13.91 11.14L14 11.13V5.74001C14 3.68001 15.68 2 17.74 2H18.26C20.09 2 21.63 3.33 21.94 5.08C21.98 5.29 22 5.51001 22 5.74001Z" />
<path d="M10 5.74001V12.12C9.65 12.16 9.29998 12.21 8.97998 12.28C6.94998 12.65 5.40003 13.35 4.28003 14.06C2.92003 14.91 2.10002 16.38 2.02002 17.98C2.01002 17.99 2 18 2 18V5.74001C2 3.68001 3.67999 2 5.73999 2H6.26001C8.32001 2 10 3.68001 10 5.74001Z" />
</svg>

<?xml version="1.0" encoding="UTF-8"?>
<svg width="24" height="24" viewBox="0 0 24 24" xmlns="http://www.w3.org/2000/svg">
 <path d="m22 5.7402v12.52c0 2.06-1.68 3.74-3.74 3.74h-0.52c-2.06 0-3.74-1.68-3.74-3.74v-6.38c0.35-0.04 0.69-0.09 1.01-0.16 2.04-0.37 3.59-1.07 4.71-1.78 1.44-0.9 2.28-2.5 2.28-4.2z"/>
 <path d="m22 5.74c0 1.7-0.84 3.3-2.28 4.2-1.12 0.71-2.67 1.41-4.71 1.78-0.32 0.07-0.66 0.12-1.01 0.16v0.75c-1.19 0.15-2.46 0.07-3.93 0.22l-0.07 0.01v5.4c0 2.06-1.68 3.74-3.74 3.74h-0.52002c-2.06 0-3.74-1.68-3.74-3.74 0-0.09 2e-5 -0.19 0.02002-0.28 0.08-1.6 0.90001-3.07 2.26-3.92 1.12-0.71 2.67-1.41 4.7-1.78 0.32-0.07 0.67002-0.12 1.02-0.16v-0.77c1.56-0.14 2.75-0.06 3.91-0.21l0.09-0.01v-5.39c0-2.06 1.68-3.74 3.74-3.74h0.52c1.83 0 3.37 1.33 3.68 3.08 0.04 0.21 0.06 0.43001 0.06 0.66001z"/>
 <path d="m10 5.74v6.38c-0.35 0.04-0.70002 0.09-1.02 0.16-2.03 0.37-3.58 1.07-4.7 1.78-1.36 0.85-2.18 2.32-2.26 3.92-0.01 0.01-0.02002 0.02-0.02002 0.02v-12.26c0-2.06 1.68-3.74 3.74-3.74h0.52002c2.06 0 3.74 1.68 3.74 3.74z"/>
</svg>
